dist/images/IG_v2.svg

<svg width="28" height="28" viewBox="0 0 28 28" fill="none" xmlns="http://www.w3.org/2000/svg">
<path fill-rule="evenodd" clip-rule="evenodd" d="M14 28C21.7319 28 28 21.7319 28 14C28 6.26807 21.7319 0 14 0C6.26807 0 0 6.26807 0 14C0 21.7319 6.26807 28 14 28ZM7 16.75C7 20.5 8.5 22 12.25 22H16.75C20.5 22 22 20.5 22 16.75V12.25C22 8.5 20.5 7 16.75 7H12.25C8.5 7 7 8.5 7 12.25V16.75ZM17.125 14.5C17.125 15.9497 15.9497 17.125 14.5 17.125C13.0503 17.125 11.875 15.9497 11.875 14.5C11.875 13.0503 13.0503 11.875 14.5 11.875C15.9497 11.875 17.125 13.0503 17.125 14.5ZM19.3564 10.5C19.3564 10.7764 19.1326 11 18.8564 11C18.5803 11 18.3564 10.7764 18.3564 10.5C18.3564 10.2236 18.5803 10 18.8564 10C19.1326 10 19.3564 10.2236 19.3564 10.5Z" fill="#D9D9D9"/>
</svg>

<svg width="28" height="28" viewBox="0 0 28 28" fill="none" xmlns="http://www.w3.org/2000/svg"><path fill-rule="evenodd" clip-rule="evenodd" d="M14 28c7.732 0 14-6.268 14-14S21.732 0 14 0 0 6.268 0 14s6.268 14 14 14zM7 16.75C7 20.5 8.5 22 12.25 22h4.5C20.5 22 22 20.5 22 16.75v-4.5C22 8.5 20.5 7 16.75 7h-4.5C8.5 7 7 8.5 7 12.25v4.5zm10.125-2.25a2.625 2.625 0 11-5.25 0 2.625 2.625 0 015.25 0zm2.231-4a.5.5 0 11-1 0 .5.5 0 011 0z" fill="#D9D9D9"/></svg>
